icon-themes/sifr_svg/cmd/lc_arrowshapes.striped-right-arrow.svg

<svg viewBox="0 0 24 24" xmlns="http://www.w3.org/2000/svg"><g fill="#555753"><path d="m16 5v4h-7v6h7v4h1.777344l5.222656-5.875v-2.25l-5.222656-5.875zm2 3.8613281 3 3.1386719-3 3.138672v-2.138672h-7v-2h7zm-17 .1386719v6h2v-6zm4 0v6h2v-6z"/><path d="m18 8.8613281v2.1386719h-7v2h7v2.138672l3-3.138672z" opacity=".35"/></g></svg>

<svg viewBox="0 0 24 24" xmlns="http://www.w3.org/2000/svg">
  <path
     style="fill:#555753"
     d="M 16 5 L 16 9 L 9 9 L 9 15 L 16 15 L 16 19 L 17.777344 19 L 23 13.125 L 23 10.875 L 17.777344 5 L 16 5 z M 18 8.8613281 L 21 12 L 18 15.138672 L 18 13 L 11 13 L 11 11 L 18 11 L 18 8.8613281 z M 1 9 L 1 15 L 3 15 L 3 9 L 1 9 z M 5 9 L 5 15 L 7 15 L 7 9 L 5 9 z "
     />
  <path
     style="opacity:0.35;fill:#555753"
     d="M 18,8.8613281 V 11 h -7 v 2 h 7 v 2.138672 L 21,12 Z"
     />
</svg>
